dist/svgs/devui-icons/op/cherry-pick.svg

<?xml version="1.0" encoding="UTF-8"?>
<svg width="16px" height="16px" viewBox="0 0 16 16" version="1.1" xmlns="http://www.w3.org/2000/svg" xmlns:xlink="http://www.w3.org/1999/xlink">
    <title>操作/cherry-pick</title>
    <desc>Created with Sketch.</desc>
    <g id="操作/cherry-pick" stroke="none" stroke-width="1" fill="none" fill-rule="evenodd">
        <path d="M3,7 L3,11 C3,11.5522847 3.44771525,12 4,12 L6,12 L6,14 L3,14 L3,13.8292943 C1.83480763,13.4174579 1,12.3062188 1,11 L1,3 C1,1.34314575 2.34314575,0 4,0 L5,0 L5,2 L4,2 C3.44771525,2 3,2.44771525 3,3 L3,5 L6,5 L6,7 L3,7 Z M9,9 C7.34314575,9 6,7.65685425 6,6 C6,4.34314575 7.34314575,3 9,3 C10.6568542,3 12,4.34314575 12,6 C12,7.65685425 10.6568542,9 9,9 Z M9,7 C9.55228475,7 10,6.55228475 10,6 C10,5.44771525 9.55228475,5 9,5 C8.44771525,5 8,5.44771525 8,6 C8,6.55228475 8.44771525,7 9,7 Z M12,5 L15,5 L15,7 L12,7 L12,5 Z M9,16 C7.34314575,16 6,14.6568542 6,13 C6,11.3431458 7.34314575,10 9,10 C10.6568542,10 12,11.3431458 12,13 C12,14.6568542 10.6568542,16 9,16 Z M9,14 C9.55228475,14 10,13.5522847 10,13 C10,12.4477153 9.55228475,12 9,12 C8.44771525,12 8,12.4477153 8,13 C8,13.5522847 8.44771525,14 9,14 Z M12,12 L15,12 L15,14 L12,14 L12,12 Z M6,0 L8,0 L8,2 L6,2 L6,0 Z M9,0 L11,0 L11,2 L9,2 L9,0 Z M12,0 L14,0 L14,2 L12,2 L12,0 Z" id="形状" fill="#293040"></path>
    </g>
</svg>

<svg xmlns="http://www.w3.org/2000/svg" viewBox="0 0 16 16"><path fill-rule="evenodd" d="M3 7v4a1 1 0 001 1h2v2H3v-.17A3.001 3.001 0 011 11V3a3 3 0 013-3h1v2H4a1 1 0 00-1 1v2h3v2H3zm6 2a3 3 0 110-6 3 3 0 010 6zm0-2a1 1 0 100-2 1 1 0 000 2zm3-2h3v2h-3V5zM9 16a3 3 0 110-6 3 3 0 010 6zm0-2a1 1 0 100-2 1 1 0 000 2zm3-2h3v2h-3v-2zM6 0h2v2H6V0zm3 0h2v2H9V0zm3 0h2v2h-2V0z"/></svg>
